X:355
T:Polska efter Lapp-Nils
R:Polska
Z:Jonas Brunskog, 19/7 2008
O:Jämtland
S:efter Lapp-Nils
S:efter Per Karlsson Viksten
B:Svenska låtar Jämtland
N:Sv. L. Jä. 170
M:3/4
L:1/8
K:Gm
|:D^F GA Bd|(3c(Ac) (3B(AG) A^F|G2 A4|D^F GA Bd|(3c(Ac) (3B(AG) A^F|(^FG) G4:|
K:G
|:Bd ce dc|BG Ac Bd|(3c(Ac) (3B(AG) AF|(3G(AB) (3c(Ac) BG|
Bd ce dc|BG Ac Bd|(3c(Ac) (3B(AG) AF|FG G4:|
(:musicend:)
Här är en variant...
(:music:)
